X:1
T: The Belles of Amaha
C:
R:Reel
Q:232
K:G
M:4/4
L:1/8
|:B2BA BG EF|GA Bd ef ge|B2BA BG EF|GB AF EF GA|
B2BA BG EF|GA Bd ef ge|B2BA BG EF|GB AF EF GA|
Bd ef gf gb|ag fg ed BA|Bd ef gf gb|ag fg e2ed|
Bd ef gf gb|ag fg ef ge|B2BA BG EF|GB AF EF GA:|
